**kern	**silbe	**harmony	**chordsym	**phrase	**timestamp	**leadinstrument
*ICvox	*	*M4/4	*M4/4	*	*	*
*	*	*E:	*E:	*	*	*
=1	=1	=1	=1	=1	=1	=1
*E:	*	*	*	*	*	*
*M4/4	*	*	*	*	*	*
*clefG2	*	*	*	*	*	*
1r	.	1r;	r	.	0	r
=2	=2	=2	=2	=2	=2	=2
*	*	*>A_intro	*>A_intro	*>A_intro	*>A_intro	*>A_intro
1r	.	1N	N	newline	0.302	drums
=3	=3	=3	=3	=3	=3	=3
*	*	*>B_interlude	*>B_interlude	*>B_interlude	*>B_interlude	*>B_interlude
1r	.	1EM	E:5 (E B)	newline	1.976	guitar
=4	=4	=4	=4	=4	=4	=4
1r	.	2.AM	A:5 (A E)	.	.	guitar
.	.	4EM	E:5 (E B)	.	.	guitar
=5	=5	=5	=5	=5	=5	=5
1r	.	1EM	E:5 (E B)	.	.	guitar
=6	=6	=6	=6	=6	=6	=6
1r	.	2EM	E:5 (E B)	.	.	guitar
.	.	4GM	G:5 (G D)	.	.	guitar
.	.	4AM	A:5 (A E)	.	.	guitar
=7	=7	=7	=7	=7	=7	=7
1r	.	1EM	E:5 (E B)	newline	9.104	guitar
=8	=8	=8	=8	=8	=8	=8
1r	.	2.AM	A:5 (A E)	.	.	guitar
.	.	4EM	E:5 (E B)	.	.	guitar
=9	=9	=9	=9	=9	=9	=9
1r	.	1EM	E:5 (E B)	newline	12.65	guitar
=10	=10	=10	=10	=10	=10	=10
1r	.	2EM	E:5 (E B)	.	.	guitar
.	.	4GM	G:5 (G D)	.	.	guitar
.	.	4AM	A:5 (A E)	.	.	guitar
=11	=11	=11	=11	=11	=11	=11
1r	.	2AM	A:5 (A E)	.	.	guitar
.	.	2EM	E:5 (E B)	.	.	guitar
=12	=12	=12	=12	=12	=12	=12
1r	.	1EM	E:5 (E B)	.	.	guitar
=13	=13	=13	=13	=13	=13	=13
1r	.	1EM	E:5 (E B)	newline	19.753	guitar
=14	=14	=14	=14	=14	=14	=14
1r	.	1EM	E:5 (E B)	.	.	guitar
=15	=15	=15	=15	=15	=15	=15
2r	.	1EM	E:5 (E B)	.	.	guitar
4r	.	.	.	.	.	.
4g	One	.	.	.	.	.
=16	=16	=16	=16	=16	=16	=16
8g	foot	1EM	E:5 (E B)	.	.	guitar
8g	on	.	.	.	.	.
8e	the	.	.	.	.	.
8g	brake,	.	.	.	.	.
4r	.	.	.	.	.	.
8r	.	.	.	.	.	.
8d	and	.	.	.	.	.
=17	=17	=17	=17	=17	=17	=17
*	*	*>C_verse	*>C_verse	*>C_verse	*>C_verse	*>C_verse
8e	one	1EM	E:5 (E B)	newline	26.879	voice
8e	on	.	.	.	.	.
8d	the	.	.	.	.	.
8e	gas,	.	.	.	.	.
4r	_	.	.	.	.	.
4cc#	hey!	.	.	.	.	.
=18	=18	=18	=18	=18	=18	=18
1r	.	1EM	E:5 (E B)	.	.	voice
=19	=19	=19	=19	=19	=19	=19
1r	.	2EM	E:5 (E B)	newline	30.441	guitar
.	.	2GM	G:5 (G D)	.	.	guitar
=20	=20	=20	=20	=20	=20	=20
1r	.	2AM	A:5 (A E)	.	.	guitar
.	.	4GM	G:5 (G D)	.	.	guitar
.	.	4AM	A:5 (A E)	.	.	guitar
=21	=21	=21	=21	=21	=21	=21
2r	.	2AM	A:5 (A E)	.	.	guitar
8r	.	2EM	E:5 (E B)	.	.	guitar
8g	Well,	.	.	.	.	.
4g	there's	.	.	.	.	.
=22	=22	=22	=22	=22	=22	=22
4g	too	1EM	E:5 (E B)	.	.	guitar
4e	much	.	.	.	.	.
8e	tra-	.	.	.	.	.
8c#	-ffic,	.	.	.	.	.
8r	.	.	.	.	.	.
8g	I	.	.	.	.	.
=23	=23	=23	=23	=23	=23	=23
8r	.	1EM	E:5 (E B)	newline	37.635	voice
8g	can't	.	.	.	.	.
8r	.	.	.	.	.	.
[8g	pass,	.	.	.	.	.
4g]	_	.	.	.	.	.
4e	no!	.	.	.	.	.
=24	=24	=24	=24	=24	=24	=24
1r	.	1EM	E:5 (E B)	.	.	voice
=25	=25	=25	=25	=25	=25	=25
2r	.	2EM	E:5 (E B)	newline	41.169	guitar
8r	.	2GM	G:5 (G D)	.	.	guitar
8b	So	.	.	.	.	.
4b	I	.	.	.	.	.
=26	=26	=26	=26	=26	=26	=26
4b	tried	2AM	A:5 (A E)	.	.	guitar
4e	my	.	.	.	.	.
4e	best	4GM	G:5 (G D)	.	.	guitar
8r	.	4AM	A:5 (A E)	.	.	guitar
8c#	il-	.	.	.	.	.
=27	=27	=27	=27	=27	=27	=27
8e	-le-	1EM	E:5 (E B)	newline	44.722	voice
[8e	-gal	.	.	.	.	.
8e]	_	.	.	.	.	.
[8g	move,	.	.	.	.	.
8g]	_	.	.	.	.	.
8c#	well	.	.	.	.	.
8e	ba-	.	.	.	.	.
8c#	-by,	.	.	.	.	.
=28	=28	=28	=28	=28	=28	=28
6g	black	1EM	E:5 (E B)	.	.	voice
6g	and	.	.	.	.	.
6g	white,	.	.	.	.	.
8r	.	.	.	.	.	.
8g	come	.	.	.	.	.
8g	and	.	.	.	.	.
[8a	touched	.	.	.	.	.
=29	=29	=29	=29	=29	=29	=29
8a]	_	1GM	G:5 (G D)	.	.	voice
8a	my	.	.	.	.	.
8g	_	.	.	.	.	.
[8a	groove	.	.	.	.	.
4a]	_	.	.	.	.	.
8g#	a-	.	.	.	.	.
[8b	-gain!	.	.	.	.	.
=30	=30	=30	=30	=30	=30	=30
1b_	_	1AM	A:5 (A E)	.	.	voice
=31	=31	=31	=31	=31	=31	=31
8b]	_	1BM	B:5 (B F#)	newline	51.853	voice
8r	.	.	.	.	.	.
4r	.	.	.	.	.	.
8r	.	.	.	.	.	.
8b	I'm	.	.	.	.	.
8b	gon-	.	.	.	.	.
8g	-na	.	.	.	.	.
=32	=32	=32	=32	=32	=32	=32
4a	write	1BM	B:5 (B F#)	.	.	voice
4a	me	.	.	.	.	.
8a	up	.	.	.	.	.
8g	a	.	.	.	.	.
4a	one	.	.	.	.	.
=33	=33	=33	=33	=33	=33	=33
*	*	*>D_chorus	*>D_chorus	*>D_chorus	*>D_chorus	*>D_chorus
8r	.	1AM	A:5 (A E)	newline	55.445	voice
8a	twen-	.	.	.	.	.
8g	-ty	.	.	.	.	.
8a	five,	.	.	.	.	.
2r	.	.	.	.	.	.
=34	=34	=34	=34	=34	=34	=34
4e	post	1AM	A:5 (A E)	.	.	voice
4e	my	.	.	.	.	.
4e	face	.	.	.	.	.
8g	wan-	.	.	.	.	.
8e	-ted	.	.	.	.	.
=35	=35	=35	=35	=35	=35	=35
8g	dead	1EM	E:5 (E B)	.	.	voice
8g	or	.	.	.	.	.
8e	a-	.	.	.	.	.
8g	-live,	.	.	.	.	.
2r	.	.	.	.	.	.
=36	=36	=36	=36	=36	=36	=36
4a	take	1EM	E:5 (E B)	.	.	voice
4a	my	.	.	.	.	.
8a	li-	.	.	.	.	.
8g	-cense,	.	.	.	.	.
8r	.	.	.	.	.	.
[8a	all	.	.	.	.	.
=37	=37	=37	=37	=37	=37	=37
8a]	_	1AM	A:5 (A E)	newline	62.667	voice
8a	that	.	.	.	.	.
8g	_	.	.	.	.	.
8a	jive,	.	.	.	.	.
4r	.	.	.	.	.	.
8r	.	.	.	.	.	.
8b	I	.	.	.	.	.
=38	=38	=38	=38	=38	=38	=38
2r	.	1AM	A:5 (A E)	.	.	voice
4a	can't	.	.	.	.	.
8r	.	.	.	.	.	.
[8b	drive	.	.	.	.	.
=39	=39	=39	=39	=39	=39	=39
4b]	_	1BM	B:5 (B F#)	.	.	voice
4r	.	.	.	.	.	.
4dd	fif-	.	.	.	.	.
8b	-ty	.	.	.	.	.
[8b	five!	.	.	.	.	.
=40	=40	=40	=40	=40	=40	=40
8b]	_	1BM	B:5 (B F#)	.	.	voice
8r	.	.	.	.	.	.
4r	.	.	.	.	.	.
2r	.	.	.	.	.	.
=41	=41	=41	=41	=41	=41	=41
*	*	*>B_interlude	*>B_interlude	*>B_interlude	*>B_interlude	*>B_interlude
1r	.	2N	N	newline	69.882	guitar
.	.	2EM	E:5 (E B)	.	.	guitar
=42	=42	=42	=42	=42	=42	=42
2r	.	2.AM	A:5 (A E)	.	.	guitar
8r	.	.	.	.	.	.
[8b	Oh,	.	.	.	.	.
8b]	_	4EM	E:5 (E B)	.	.	guitar
[8b	no!	.	.	.	.	.
=43	=43	=43	=43	=43	=43	=43
4b]	_	1EM	E:5 (E B)	.	.	guitar
4r	.	.	.	.	.	.
2r	.	.	.	.	.	.
=44	=44	=44	=44	=44	=44	=44
4g#	Uh!	2EM	E:5 (E B)	.	.	guitar
4r	.	.	.	.	.	.
2r	.	4GM	G:5 (G D)	.	.	guitar
.	.	4AM	A:5 (A E)	.	.	guitar
=45	=45	=45	=45	=45	=45	=45
1r	.	1EM	E:5 (E B)	newline	77	guitar
=45	=45	=45	=45	=45	=45	=45
.	.	2.AM	A:5 (A E)	.	.	guitar
=46	=46	=46	=46	=46	=46	=46
1r	.	.	.	.	.	.
.	.	4EM	E:5 (E B)	.	.	guitar
=47	=47	=47	=47	=47	=47	=47
1r	.	1EM	E:5 (E B)	newline	80.573	guitar
=48	=48	=48	=48	=48	=48	=48
1r	.	2EM	E:5 (E B)	.	.	guitar
.	.	4GM	G:5 (G D)	.	.	guitar
.	.	4AM	A:5 (A E)	.	.	guitar
=49	=49	=49	=49	=49	=49	=49
1r	.	2AM	A:5 (A E)	.	.	guitar
.	.	2EM	E:5 (E B)	.	.	guitar
=50	=50	=50	=50	=50	=50	=50
1r	.	1EM	E:5 (E B)	.	.	guitar
=51	=51	=51	=51	=51	=51	=51
2r	.	1EM	E:5 (E B)	newline	87.717	guitar
8r	.	.	.	.	.	.
8b	So	.	.	.	.	.
4b	I	.	.	.	.	.
=52	=52	=52	=52	=52	=52	=52
4e	signed	1EM	E:5 (E B)	.	.	guitar
4e	my	.	.	.	.	.
8e	name	.	.	.	.	.
8d	on	.	.	.	.	.
8e	num-	.	.	.	.	.
8d	-ber	.	.	.	.	.
=53	=53	=53	=53	=53	=53	=53
*	*	*>C_verse	*>C_verse	*>C_verse	*>C_verse	*>C_verse
8r	.	1EM	E:5 (E B)	newline	91.31	voice
8g	twen-	.	.	.	.	.
8e	-ty	.	.	.	.	.
[8g	four,	.	.	.	.	.
4g]	_	.	.	.	.	.
4g	hey!	.	.	.	.	.
=54	=54	=54	=54	=54	=54	=54
1r	.	1EM	E:5 (E B)	.	.	voice
=55	=55	=55	=55	=55	=55	=55
1r	.	2EM	E:5 (E B)	newline	94.85	guitar
.	.	2GM	G:5 (G D)	.	.	guitar
=56	=56	=56	=56	=56	=56	=56
1r	.	2AM	A:5 (A E)	.	.	guitar
.	.	4GM	G:5 (G D)	.	.	guitar
.	.	4AM	A:5 (A E)	.	.	guitar
=57	=57	=57	=57	=57	=57	=57
2r	.	2AM	A:5 (A E)	.	.	guitar
8r	.	2EM	E:5 (E B)	.	.	guitar
8b	Yeah	.	.	.	.	.
8b	the	.	.	.	.	.
[8b	judge	.	.	.	.	.
=58	=58	=58	=58	=58	=58	=58
4b]	_	1EM	E:5 (E B)	.	.	guitar
4b	said,	.	.	.	.	.
4.b	\\\"boy,	.	.	.	.	.
[8e	just	.	.	.	.	.
=59	=59	=59	=59	=59	=59	=59
8d#	_	1EM	E:5 (E B)	newline	102.124	voice
16gq	_	.	.	.	.	.
[8g#	one	.	.	.	.	.
8g#]	_	.	.	.	.	.
[8d	more...	.	.	.	.	.
4d]	\\\"	.	.	.	.	.
4e	huh!	.	.	.	.	.
=60	=60	=60	=60	=60	=60	=60
1r	.	1EM	E:5 (E B)	.	.	voice
=61	=61	=61	=61	=61	=61	=61
2r	.	2EM	E:5 (E B)	newline	105.581	guitar
8r	.	2GM	G:5 (G D)	.	.	guitar
8b	\\\"We're	.	.	.	.	.
8b	gon-	.	.	.	.	.
8a	-na	.	.	.	.	.
=62	=62	=62	=62	=62	=62	=62
4b	throw	2AM	A:5 (A E)	.	.	guitar
4e	your	.	.	.	.	.
4e	ass	4GM	G:5 (G D)	.	.	guitar
8e	in	4AM	A:5 (A E)	.	.	guitar
8d	the	.	.	.	.	.
=63	=63	=63	=63	=63	=63	=63
8r	.	1EM	E:5 (E B)	newline	109.203	voice
16g	ci-	.	.	.	.	.
[16e	-ty	.	.	.	.	.
8e]	_	.	.	.	.	.
8g	joint\\\"	.	.	.	.	.
4r	.	.	.	.	.	.
8r	.	.	.	.	.	.
[8a	Looked	.	.	.	.	.
=64	=64	=64	=64	=64	=64	=64
8a]	_	1EM	E:5 (E B)	.	.	voice
8a	me	.	.	.	.	.
8a	in	.	.	.	.	.
8g	the	.	.	.	.	.
4a	eye,	.	.	.	.	.
4c#	said	.	.	.	.	.
=65	=65	=65	=65	=65	=65	=65
8r	.	1GM	G:5 (G D)	.	.	voice
8a	\\\"you	.	.	.	.	.
8a	get	.	.	.	.	.
8a	my	.	.	.	.	.
8a	point?\\\"	.	.	.	.	.
8a	I	.	.	.	.	.
8a	said,	.	.	.	.	.
[8b	\\\"yeah	.	.	.	.	.
=66	=66	=66	=66	=66	=66	=66
1b]	_	1AM	A:5 (A E)	.	.	voice
=67	=67	=67	=67	=67	=67	=67
4dd	oh,	1BM	B:5 (B F#)	newline	116.41	voice
4a	yeah!\\\"	.	.	.	.	.
2r	.	.	.	.	.	.
=68	=68	=68	=68	=68	=68	=68
4a	Write	1BM	B:5 (B F#)	.	.	voice
4a	me	.	.	.	.	.
8a	up	.	.	.	.	.
8g	a	.	.	.	.	.
4a	one	.	.	.	.	.
=69	=69	=69	=69	=69	=69	=69
*	*	*>D_chorus	*>D_chorus	*>D_chorus	*>D_chorus	*>D_chorus
8r	.	1AM	A:5 (A E)	newline	119.984	voice
8a	twen-	.	.	.	.	.
8g	-ty	.	.	.	.	.
8a	five,	.	.	.	.	.
2r	.	.	.	.	.	.
=70	=70	=70	=70	=70	=70	=70
4e	post	1AM	A:5 (A E)	.	.	voice
4e	my	.	.	.	.	.
4e	face	.	.	.	.	.
8g	wan-	.	.	.	.	.
8e	-ted	.	.	.	.	.
=71	=71	=71	=71	=71	=71	=71
8g	dead	1EM	E:5 (E B)	.	.	voice
8g	or	.	.	.	.	.
8e	a-	.	.	.	.	.
8g	-live.	.	.	.	.	.
=72	=72	=72	=72	=72	=72	=72
4a	Take	.	.	.	.	.
4a	my	.	.	.	.	.
=71	=71	=71	=71	=71	=71	=71
8a	li-	1EM	E:5 (E B)	.	.	voice
8e	-cense,	.	.	.	.	.
8r	.	.	.	.	.	.
[8a	all	.	.	.	.	.
=73	=73	=73	=73	=73	=73	=73
8a]	_	.	.	.	.	.
[8cc	that	.	.	.	.	.
8cc]	_	.	.	.	.	.
[8g	jive,	.	.	.	.	.
=72	=72	=72	=72	=72	=72	=72
8g]	_	1AM	A:5 (A E)	newline	127.107	voice
8r	.	.	.	.	.	.
8r	.	.	.	.	.	.
8b	I	.	.	.	.	.
=74	=74	=74	=74	=74	=74	=74
2r	.	.	.	.	.	.
=73	=73	=73	=73	=73	=73	=73
4b	can't	1AM	A:5 (A E)	.	.	voice
8r	.	.	.	.	.	.
[8b	drive	.	.	.	.	.
=75	=75	=75	=75	=75	=75	=75
4b]	_	.	.	.	.	.
4r	.	.	.	.	.	.
=74	=74	=74	=74	=74	=74	=74
4dd	fif-	1BM	B:5 (B F#)	.	.	voice
8b	-ty	.	.	.	.	.
[8b	five!	.	.	.	.	.
=76	=76	=76	=76	=76	=76	=76
1b_	_	.	.	.	.	.
=75	=75	=75	=75	=75	=75	=75
.	.	1BM	B:5 (B F#)	.	.	voice
=77	=77	=77	=77	=77	=77	=77
2b]	_	.	.	.	.	.
=76	=76	=76	=76	=76	=76	=76
*	*	*>E_bridge	*>E_bridge	*>E_bridge	*>E_bridge	*>E_bridge
8e	_	1EM	E:5 (E B)	newline	134.354	voice
8cc#	Oh,	.	.	.	.	.
4b	yeah!	.	.	.	.	.
=78	=78	=78	=78	=78	=78	=78
2r	.	.	.	.	.	.
=77	=77	=77	=77	=77	=77	=77
4f#	I	2.AM	A:5 (A E)	.	.	voice
4f#	can't	.	.	.	.	.
=79	=79	=79	=79	=79	=79	=79
4f#	drive	.	.	.	.	.
4r	.	4EM	E:5 (E B)	.	.	voice
=78	=78	=78	=78	=78	=78	=78
4f#	fif-	1DM	D:5 (D A)	.	.	voice
8f#	-ty	.	.	.	.	.
[8g#	five!	.	.	.	.	.
=80	=80	=80	=80	=80	=80	=80
8g	_	.	.	.	.	.
8g#	_	.	.	.	.	.
4r	.	.	.	.	.	.
=79	=79	=79	=79	=79	=79	=79
2r	.	1DM	D:5 (D A)	.	.	voice
=81	=81	=81	=81	=81	=81	=81
1r	.	.	.	.	.	.
=80	=80	=80	=80	=80	=80	=80
.	.	1EM	E:5 (E B)	newline	141.459	voice
=82	=82	=82	=82	=82	=82	=82
2r	.	.	.	.	.	.
=81	=81	=81	=81	=81	=81	=81
4f#	I	1EM	E:5 (E B)	.	.	voice
4f#	can't	.	.	.	.	.
=83	=83	=83	=83	=83	=83	=83
4f#	drive	.	.	.	.	.
4r	.	.	.	.	.	.
=82	=82	=82	=82	=82	=82	=82
4f#	fif-	1DM	D:5 (D A)	.	.	voice
8f#	-ty	.	.	.	.	.
[8g#	five!	.	.	.	.	.
=84	=84	=84	=84	=84	=84	=84
8g	_	.	.	.	.	.
8g#	_	.	.	.	.	.
4r	.	.	.	.	.	.
=83	=83	=83	=83	=83	=83	=83
2r	.	1DM	D:5 (D A)	.	.	voice
=85	=85	=85	=85	=85	=85	=85
1r	.	.	.	.	.	.
=84	=84	=84	=84	=84	=84	=84
.	.	1EM	E:5 (E B)	newline	148.54	voice
=86	=86	=86	=86	=86	=86	=86
2r	.	.	.	.	.	.
=85	=85	=85	=85	=85	=85	=85
4f#	I	1EM	E:5 (E B)	.	.	voice
4f#	can't	.	.	.	.	.
=87	=87	=87	=87	=87	=87	=87
4f#	drive	.	.	.	.	.
4r	.	.	.	.	.	.
=86	=86	=86	=86	=86	=86	=86
4f#	fif-	1DM	D:5 (D A)	.	.	voice
8f#	-ty	.	.	.	.	.
[8g#	five!	.	.	.	.	.
=88	=88	=88	=88	=88	=88	=88
8g	_	.	.	.	.	.
8g#	_	.	.	.	.	.
4r	.	.	.	.	.	.
=87	=87	=87	=87	=87	=87	=87
2r	.	1DM	D:5 (D A)	.	.	voice
=89	=89	=89	=89	=89	=89	=89
1r	.	.	.	.	.	.
=88	=88	=88	=88	=88	=88	=88
.	.	1EM	E:5 (E B)	newline	155.737	voice
=90	=90	=90	=90	=90	=90	=90
2r	.	.	.	.	.	.
=89	=89	=89	=89	=89	=89	=89
4f#	I	1EM	E:5 (E B)	.	.	voice
4f#	can't	.	.	.	.	.
=91	=91	=91	=91	=91	=91	=91
4f#	drive	.	.	.	.	.
4r	.	.	.	.	.	.
=90	=90	=90	=90	=90	=90	=90
4a	fif-	1DM	D:5 (D A)	.	.	voice
8a	-ty	.	.	.	.	.
[8b	five!	.	.	.	.	.
=92	=92	=92	=92	=92	=92	=92
2.b]	_	.	.	.	.	.
=91	=91	=91	=91	=91	=91	=91
.	.	1DM	D:5 (D A)	.	.	voice
4r	.	.	.	.	.	.
=93	=93	=93	=93	=93	=93	=93
1r	.	.	.	.	.	.
=92	=92	=92	=92	=92	=92	=92
.	.	2.EM	E:5 (E B)	newline	162.818	guitar
=94	=94	=94	=94	=94	=94	=94
1r	.	.	.	.	.	.
.	.	4GM	G:5 (G D)	.	.	guitar
=93	=93	=93	=93	=93	=93	=93
.	.	1EM	E:5 (E B)	.	.	guitar
=95	=95	=95	=95	=95	=95	=95
2r	.	.	.	.	.	.
=94	=94	=94	=94	=94	=94	=94
4r	.	2.EM	E:5 (E B)	.	.	guitar
4b	Uh!	.	.	.	.	.
=96	=96	=96	=96	=96	=96	=96
1r	.	.	.	.	.	.
.	.	4GM	G:5 (G D)	.	.	guitar
=95	=95	=95	=95	=95	=95	=95
.	.	2EM	E:5 (E B)	.	.	guitar
=97	=97	=97	=97	=97	=97	=97
1r	.	2DM	D:5 (D A)	.	.	guitar
=96	=96	=96	=96	=96	=96	=96
.	.	1EM	E:5 (E B)	newline	170.186	guitar
=98	=98	=98	=98	=98	=98	=98
1r	.	.	.	.	.	.
=97	=97	=97	=97	=97	=97	=97
.	.	1EM	E:5 (E B)	.	.	guitar
=99	=99	=99	=99	=99	=99	=99
2r	.	.	.	.	.	.
=98	=98	=98	=98	=98	=98	=98
8r	.	1EM	E:5 (E B)	.	.	guitar
8b	When	.	.	.	.	.
4b	I	.	.	.	.	.
=100	=100	=100	=100	=100	=100	=100
4b	drive	.	.	.	.	.
4e	that	.	.	.	.	.
=99	=99	=99	=99	=99	=99	=99
8e	slow,	1EM	E:5 (E B)	.	.	guitar
8c#	you	.	.	.	.	.
8e	know	.	.	.	.	.
8c#	it's	.	.	.	.	.
=101	=101	=101	=101	=101	=101	=101
4g	hard	.	.	.	.	.
8e	to	.	.	.	.	.
[8g	steer.	.	.	.	.	.
=100	=100	=100	=100	=100	=100	=100
*	*	*>C2_verse	*>C2_verse	*>C2_verse	*>C2_verse	*>C2_verse
4g]	_	1EM	E:5 (E B)	newline	177.371	voice
4r	.	.	.	.	.	.
=102	=102	=102	=102	=102	=102	=102
1r	.	.	.	.	.	.
=101	=101	=101	=101	=101	=101	=101
.	.	1EM	E:5 (E B)	.	.	voice
=103	=103	=103	=103	=103	=103	=103
2r	.	.	.	.	.	.
=102	=102	=102	=102	=102	=102	=102
8r	.	2EM	E:5 (E B)	newline	180.918	guitar
8b	And	.	.	.	.	.
8b	I	.	.	.	.	.
[8b	can't	.	.	.	.	.
=104	=104	=104	=104	=104	=104	=104
4b]	_	2GM	G:5 (G D)	.	.	guitar
8b	get	.	.	.	.	.
8b	my	.	.	.	.	.
=103	=103	=103	=103	=103	=103	=103
4b	car	2AM	A:5 (A E)	.	.	guitar
8b	out	.	.	.	.	.
8a	of	.	.	.	.	.
=105	=105	=105	=105	=105	=105	=105
8r	.	4GM	G:5 (G D)	.	.	guitar
8b	se-	.	.	.	.	.
8a	-cond	4AM	A:5 (A E)	.	.	guitar
[8b	gear	.	.	.	.	.
=104	=104	=104	=104	=104	=104	=104
4b]	_	1EM	E:5 (E B)	newline	184.599	voice
4r	.	.	.	.	.	.
=106	=106	=106	=106	=106	=106	=106
1r	.	.	.	.	.	.
=105	=105	=105	=105	=105	=105	=105
.	.	1EM	E:5 (E B)	.	.	voice
=107	=107	=107	=107	=107	=107	=107
2r	.	.	.	.	.	.
=106	=106	=106	=106	=106	=106	=106
8r	.	2EM	E:5 (E B)	newline	188.17	guitar
8b	What	.	.	.	.	.
8b	used	.	.	.	.	.
8a	to	.	.	.	.	.
=108	=108	=108	=108	=108	=108	=108
4b	take	2GM	G:5 (G D)	.	.	guitar
4e	two	.	.	.	.	.
=107	=107	=107	=107	=107	=107	=107
8e	ho-	2AM	A:5 (A E)	.	.	guitar
8d	-urs	.	.	.	.	.
8r	.	.	.	.	.	.
[8g	now	.	.	.	.	.
=109	=109	=109	=109	=109	=109	=109
16g]	_	4GM	G:5 (G D)	.	.	guitar
8.g	takes	.	.	.	.	.
8.g	all	4AM	A:5 (A E)	.	.	guitar
[16g	day	.	.	.	.	.
=108	=108	=108	=108	=108	=108	=108
4g]	_	1EM	E:5 (E B)	newline	191.8	voice
4r	.	.	.	.	.	.
=110	=110	=110	=110	=110	=110	=110
2r	.	.	.	.	.	.
=109	=109	=109	=109	=109	=109	=109
8r	.	1EM	E:5 (E B)	.	.	voice
8a	It	.	.	.	.	.
8a	took	.	.	.	.	.
8g	me	.	.	.	.	.
=111	=111	=111	=111	=111	=111	=111
4a	six-	.	.	.	.	.
4a	-teen	.	.	.	.	.
=110	=110	=110	=110	=110	=110	=110
8a	ho-	1GM	G:5 (G D)	.	.	voice
8g	-urs	.	.	.	.	.
8c#	to	.	.	.	.	.
[8b	get	.	.	.	.	.
=112	=112	=112	=112	=112	=112	=112
8b]	_	.	.	.	.	.
8b	to	.	.	.	.	.
8b	L	.	.	.	.	.
[8b	A!	.	.	.	.	.
=111	=111	=111	=111	=111	=111	=111
2b_	_	1AM	A:5 (A E)	.	.	voice
=113	=113	=113	=113	=113	=113	=113
2b]	_	.	.	.	.	.
=112	=112	=112	=112	=112	=112	=112
8r	.	1BM	B:5 (B F#)	newline	199.017	voice
8b	Go	.	.	.	.	.
8b	on	.	.	.	.	.
8g#	and	.	.	.	.	.
=114	=114	=114	=114	=114	=114	=114
4a	write	.	.	.	.	.
4a	me	.	.	.	.	.
=113	=113	=113	=113	=113	=113	=113
8a	up	1BM	B:5 (B F#)	.	.	voice
8g	a	.	.	.	.	.
4a	one	.	.	.	.	.
=115	=115	=115	=115	=115	=115	=115
8r	.	.	.	.	.	.
8a	twen-	.	.	.	.	.
8g	-ty	.	.	.	.	.
8a	five,	.	.	.	.	.
=114	=114	=114	=114	=114	=114	=114
*	*	*>D_chorus	*>D_chorus	*>D_chorus	*>D_chorus	*>D_chorus
2r	.	1AM	A:5 (A E)	newline	202.652	voice
=116	=116	=116	=116	=116	=116	=116
4e	post	.	.	.	.	.
4e	my	.	.	.	.	.
=115	=115	=115	=115	=115	=115	=115
4e	face	1AM	A:5 (A E)	.	.	voice
8g	want-	.	.	.	.	.
8e	-ed	.	.	.	.	.
=117	=117	=117	=117	=117	=117	=117
8g	dead	.	.	.	.	.
8g	or	.	.	.	.	.
8e	a-	.	.	.	.	.
8g	-live.	.	.	.	.	.
=118	=118	=118	=118	=118	=118	=118
4a	Take	1EM	E:5 (E B)	.	.	voice
4a	my	.	.	.	.	.
8a	li-	.	.	.	.	.
8g	-cense	.	.	.	.	.
8c#	n-	.	.	.	.	.
[8a	-all	.	.	.	.	.
=119	=119	=119	=119	=119	=119	=119
8a]	_	1EM	E:5 (E B)	.	.	voice
[8cc	that	.	.	.	.	.
8cc]	_	.	.	.	.	.
[8g	jive	.	.	.	.	.
8g]	_	.	.	.	.	.
8r	.	.	.	.	.	.
8r	.	.	.	.	.	.
8b	I	.	.	.	.	.
=120	=120	=120	=120	=120	=120	=120
2r	.	1AM	A:5 (A E)	newline	209.862	voice
4b	can't	.	.	.	.	.
8r	.	.	.	.	.	.
[8b	drive	.	.	.	.	.
=121	=121	=121	=121	=121	=121	=121
4b]	_	1AM	A:5 (A E)	.	.	voice
4r	.	.	.	.	.	.
4dd	fif-	.	.	.	.	.
8b	-ty	.	.	.	.	.
[8b	five!	.	.	.	.	.
=122	=122	=122	=122	=122	=122	=122
1b_	_	1BM	B:5 (B F#)	.	.	voice
=123	=123	=123	=123	=123	=123	=123
8b]	_	1BM	B:5 (B F#)	.	.	voice
=124	=124	=124	=124	=124	=124	=124
2r	.	.	.	.	.	.
8r	.	.	.	.	.	.
[8b	No,	.	.	.	.	.
8b]	_	.	.	.	.	.
=122	=122	=122	=122	=122	=122	=122
*	*	*>B2_outro	*>B2_outro	*>B2_outro	*>B2_outro	*>B2_outro
[8b	no,	1EM	E:5 (E B)	newline	217.081	guitar
=125	=125	=125	=125	=125	=125	=125
8b]	_	.	.	.	.	.
[8b	no,	.	.	.	.	.
8b]	_	.	.	.	.	.
[8b	I	.	.	.	.	.
8b]	_	.	.	.	.	.
[8b	can't	.	.	.	.	.
8b]	_	.	.	.	.	.
=123	=123	=123	=123	=123	=123	=123
[8b	drive!	2.AM	A:5 (A E)	.	.	guitar
=126	=126	=126	=126	=126	=126	=126
8b]	_	.	.	.	.	.
8r	.	.	.	.	.	.
4r	.	.	.	.	.	.
4g b dd	I	.	.	.	.	.
.	.	4EM	E:5 (E B)	.	.	guitar
4g b dd	can't	.	.	.	.	.
=124	=124	=124	=124	=124	=124	=124
.	.	1EM	E:5 (E B)	.	.	guitar
=127	=127	=127	=127	=127	=127	=127
4g b cc#	drive	.	.	.	.	.
4r	.	.	.	.	.	.
4g b dd	fif-	.	.	.	.	.
8f# a cc#	-ty	.	.	.	.	.
=125	=125	=125	=125	=125	=125	=125
8f# a cc#	five!	2EM	E:5 (E B)	.	.	guitar
=128	=128	=128	=128	=128	=128	=128
4e g b	_	.	.	.	.	.
4r	.	.	.	.	.	.
.	.	4GM	G:5 (G D)	.	.	guitar
2r	.	.	.	.	.	.
.	.	4AM	A:5 (A E)	.	.	guitar
=126	=126	=126	=126	=126	=126	=126
.	.	1EM	E:5 (E B)	newline	224.197	voice
=129	=129	=129	=129	=129	=129	=129
4r	.	.	.	.	.	.
8r	.	.	.	.	.	.
[8b	I	.	.	.	.	.
8b]	_	.	.	.	.	.
[8b	can't	.	.	.	.	.
8b]	_	.	.	.	.	.
=127	=127	=127	=127	=127	=127	=127
[8b	drive	2.AM	A:5 (A E)	.	.	voice
=130	=130	=130	=130	=130	=130	=130
8b]	...	.	.	.	.	.
8r	.	.	.	.	.	.
4r	.	.	.	.	.	.
4g b dd	I	.	.	.	.	.
.	.	4EM	E:5 (E B)	.	.	voice
4g b dd	can't	.	.	.	.	.
=128	=128	=128	=128	=128	=128	=128
.	.	1EM	E:5 (E B)	.	.	voice
=131	=131	=131	=131	=131	=131	=131
4g b cc#	drive	.	.	.	.	.
4r	.	.	.	.	.	.
4g b dd	fif-	.	.	.	.	.
8f# a cc#	-ty	.	.	.	.	.
=129	=129	=129	=129	=129	=129	=129
8f# a cc#	five!	2EM	E:5 (E B)	.	.	voice
=132	=132	=132	=132	=132	=132	=132
4e g b	_	.	.	.	.	.
4r	.	.	.	.	.	.
.	.	4GM	G:5 (G D)	.	.	voice
2r	.	.	.	.	.	.
.	.	4AM	A:5 (A E)	.	.	voice
=130	=130	=130	=130	=130	=130	=130
*	*	*>_fadeout	*>_fadeout	*>_fadeout	*>_fadeout	*>_fadeout
.	.	1EM	E:5 (E B)	newline	231.361	voice
=133	=133	=133	=133	=133	=133	=133
1r	.	.	.	.	.	.
=131	=131	=131	=131	=131	=131	=131
.	.	2.AM	A:5 (A E)	.	.	voice
=134	=134	=134	=134	=134	=134	=134
2r	.	.	.	.	.	.
4g b dd	I	.	.	.	.	.
.	.	4EM	E:5 (E B)	.	.	voice
4g b dd	can't	.	.	.	.	.
=132	=132	=132	=132	=132	=132	=132
.	.	1EM	E:5 (E B)	.	.	voice
=135	=135	=135	=135	=135	=135	=135
4g b cc#	drive	.	.	.	.	.
4r	.	.	.	.	.	.
4g b dd	fif-	.	.	.	.	.
8f# a cc#	-ty	.	.	.	.	.
=133	=133	=133	=133	=133	=133	=133
8f# a cc#	five!	2EM	E:5 (E B)	.	.	voice
=136	=136	=136	=136	=136	=136	=136
4e g b	_	.	.	.	.	.
4r	.	.	.	.	.	.
.	.	4GM	G:5 (G D)	.	.	voice
2r	.	.	.	.	.	.
.	.	4AM	A:5 (A E)	.	.	voice
=134	=134	=134	=134	=134	=134	=134
.	.	1EM	E:5 (E B)	newline	238.503	voice
=137	=137	=137	=137	=137	=137	=137
1r	.	.	.	.	.	.
=135	=135	=135	=135	=135	=135	=135
.	.	2.AM	A:5 (A E)	.	.	voice
=138	=138	=138	=138	=138	=138	=138
2r	.	.	.	.	.	.
4g b dd	I	.	.	.	.	.
.	.	4EM	E:5 (E B)	.	.	voice
4g b dd	can't	.	.	.	.	.
=136	=136	=136	=136	=136	=136	=136
.	.	1EM	E:5 (E B)	.	.	voice
=139	=139	=139	=139	=139	=139	=139
4g b cc#	drive	.	.	.	.	.
4r	.	.	.	.	.	.
4g b dd	fif-	.	.	.	.	.
8f# a cc#	-ty	.	.	.	.	.
=137	=137	=137	=137	=137	=137	=137
8f# a cc#	five!	2EM	E:5 (E B)	.	.	voice
=140	=140	=140	=140	=140	=140	=140
4e g b	_	.	.	.	.	.
4r	.	.	.	.	.	.
.	.	4GM	G:5 (G D)	.	.	voice
2r	.	.	.	.	.	.
.	.	4AM	A:5 (A E)	.	.	voice
=138	=138	=138	=138	=138	=138	=138
.	.	1EM	E:5 (E B)	newline	245.676	voice
=141	=141	=141	=141	=141	=141	=141
1r	.	.	.	.	.	.
=139	=139	=139	=139	=139	=139	=139
.	.	2.AM	A:5 (A E)	.	.	voice
*-	*-	*	*
.	.	.	.	.
4EM	E:5 (E B)	.	.	voice
=140	=140	=140	=140	=140
1EM	E:5 (E B)	.	.	voice
=141	=141	=141	=141	=141
2EM	E:5 (E B)	.	.	voice
4GM	G:5 (G D)	.	.	voice
4AM	A:5 (A E)	.	.	voice
1r;	r	.	248.059	r
1r;	r	.	249.966	r
*-	*-	*-	*-	*-
!!!BillboardChartDate: 1984/11/17
!!!BillboardPeak: 26
!!!BillboardWeeksOnChart: 16
!!!COC: Sammy Hagar
!!!ENC: Nathaniel Condit-Schultz
!!!EST: Awating manual error checking and editing.
!!!OTL: I Can't Drive 55
!!!RDF**chordsym: original McGill chord annotation + (implied pitch class set, with bass pitch in first position)
!!!RDF**harmony: **recip + pitch class of root + harmonic quality
!!!RDF**leadinstrument: original McGill primary instrumentation annotation
!!!RDF**phrase: newline = linebreak in original McGill transcription
!!!RDF**timestamp: McGill audio timestamp in seconds
!!!RDT: 2017/01/12/
!!!SampleActualRank: 27
!!!SampleID#: 0353
!!!SampleTargetRank: 27
